img/decore/benefits__title_decore.svg

<svg width="292" height="292" viewBox="0 0 292 292" fill="none" xmlns="http://www.w3.org/2000/svg">
<g id="Scribble">
<g id="Group">
<path id="Vector" d="M216.063 148.116C210.467 149.657 205.762 151.08 200.996 152.23C192.923 154.213 184.861 155.812 176.44 154.267C167.898 152.691 162.13 147.823 160.016 139.587C158.726 134.528 158.812 129.132 158.473 123.886C158.351 121.834 158.806 119.714 159.073 116.643C155.703 119.74 153.094 122.213 150.385 124.575C143.789 130.376 137.424 136.45 130.477 141.773C120.994 149.116 111.794 147.587 104.746 137.792C101.985 133.949 100.137 129.393 97.9133 125.128C97.2523 123.841 96.7838 122.475 96.1141 120.885C92.2897 128.295 88.7599 135.393 84.9783 142.298C76.1411 158.405 62.4873 154.279 54.6014 144.227C52.4918 141.539 51.0013 138.278 49.5204 135.148C48.6006 133.022 48.9048 130.648 51.2641 129.659C53.3906 128.739 55.0008 130.182 56.1644 132.026C57.3383 133.831 58.4006 135.736 59.7471 137.369C61.3248 139.276 62.9428 141.194 64.8657 142.759C70.282 147.15 74.7708 146.747 78.8801 141.087C81.789 137.098 84.124 132.663 86.4788 128.318C88.6705 124.276 90.6809 120.102 92.6913 115.927C93.7523 113.79 94.8941 111.673 97.5526 111.534C100.605 111.366 101.797 113.777 102.908 115.995C104.34 118.812 105.336 121.818 106.92 124.544C108.875 128.009 110.92 131.454 113.361 134.528C116.687 138.687 119.716 139.287 124.286 136.54C128.654 133.912 132.973 130.972 136.869 127.665C145.179 120.539 153.207 113.169 161.246 105.759C163.154 104.009 165.019 102.937 167.439 104.07C169.748 105.132 170.01 107.306 169.767 109.609C169.324 113.71 168.698 117.85 168.466 121.962C168.278 125.569 168.149 129.277 168.617 132.837C169.846 142.352 174.476 146.456 184.002 147.208C191.164 147.788 198.212 146.962 205.142 145.246C210.14 144.026 215.049 142.483 219.967 141.071C222.567 140.315 225.259 139.539 227.258 142.156C229.116 144.651 228.033 147.213 226.849 149.663C226.329 150.691 225.657 151.638 225.026 152.595C223.724 154.499 222.522 156.514 221.038 158.286C210.092 171.534 211.898 185.195 219.797 198.905C221.26 201.429 223.524 203.511 225.495 205.733C226.46 206.839 227.79 207.694 228.603 208.891C229.205 209.732 229.723 211.24 229.326 211.956C228.908 212.753 227.41 213.231 226.459 213.418C224.386 213.792 221.944 212.912 220.353 211.732C217.211 209.383 214.101 206.741 211.801 203.618C206.68 196.722 203.948 188.715 202.634 180.21C201.516 172.959 203.578 166.39 207.396 160.354C209.94 156.445 212.767 152.78 216.063 148.116Z" fill="black"/>
</g>
</g>
</svg>

<svg width="292" height="292" fill="none" xmlns="http://www.w3.org/2000/svg"><path d="M216.063 148.116c-5.596 1.541-10.301 2.964-15.067 4.114-8.073 1.983-16.135 3.582-24.556 2.037-8.542-1.576-14.31-6.444-16.424-14.68-1.29-5.059-1.204-10.455-1.543-15.701-.122-2.052.333-4.172.6-7.243-3.37 3.097-5.979 5.57-8.688 7.932-6.596 5.801-12.961 11.875-19.908 17.198-9.483 7.343-18.683 5.814-25.731-3.981-2.761-3.843-4.609-8.399-6.833-12.664-.66-1.287-1.13-2.653-1.799-4.243-3.824 7.41-7.354 14.508-11.136 21.413-8.837 16.107-22.49 11.981-30.377 1.929-2.11-2.688-3.6-5.949-5.08-9.079-.92-2.126-.616-4.5 1.743-5.489 2.127-.92 3.737.523 4.9 2.367 1.174 1.805 2.237 3.71 3.583 5.343 1.578 1.907 3.196 3.825 5.119 5.39 5.416 4.391 9.905 3.988 14.014-1.672 2.909-3.989 5.244-8.424 7.599-12.769 2.192-4.042 4.202-8.216 6.212-12.391 1.061-2.137 2.203-4.254 4.862-4.393 3.052-.168 4.244 2.243 5.355 4.461 1.432 2.817 2.428 5.823 4.012 8.549 1.955 3.465 4 6.91 6.441 9.984 3.326 4.159 6.355 4.759 10.925 2.012 4.368-2.628 8.687-5.568 12.583-8.875 8.31-7.126 16.338-14.496 24.377-21.906 1.908-1.75 3.773-2.822 6.193-1.689 2.309 1.062 2.571 3.236 2.328 5.539-.443 4.101-1.069 8.241-1.301 12.353-.188 3.607-.317 7.315.151 10.875 1.229 9.515 5.859 13.619 15.385 14.371 7.162.58 14.21-.246 21.14-1.962 4.998-1.22 9.907-2.763 14.825-4.175 2.6-.756 5.292-1.532 7.291 1.085 1.858 2.495.775 5.057-.409 7.507-.52 1.028-1.192 1.975-1.823 2.932-1.302 1.904-2.504 3.919-3.988 5.691-10.946 13.248-9.14 26.909-1.241 40.619 1.463 2.524 3.727 4.606 5.698 6.828.965 1.106 2.295 1.961 3.108 3.158.602.841 1.12 2.349.723 3.065-.418.797-1.916 1.275-2.867 1.462-2.073.374-4.515-.506-6.106-1.686-3.142-2.349-6.252-4.991-8.552-8.114-5.121-6.896-7.853-14.903-9.167-23.408-1.118-7.251.944-13.82 4.762-19.856 2.544-3.909 5.371-7.574 8.667-12.238z" fill="#000"/></svg>
